lib/brands/icons/google-pay.svg

<svg xmlns="http://www.w3.org/2000/svg" fill="none" aria-hidden="true" viewBox="0 0 48 48"><g id="google-pay-Icon"><g id="Group" clip-path="url(#clip0_94_17545)"><g id="Union"><path fill="#3C4043" fill-rule="evenodd" d="M22.4484 28.6482V23.8147H24.9431C25.9654 23.8147 26.8282 23.4721 27.5316 22.7966L27.7004 22.6253C28.9852 21.2266 28.9008 19.0477 27.5316 17.7537C26.8469 17.0686 25.9091 16.6976 24.9431 16.7166H20.9385V28.6482H22.4484ZM22.4486 22.3493V18.1818H24.9812C25.5252 18.1818 26.0411 18.3911 26.4257 18.7717C27.2418 19.571 27.2605 20.903 26.4726 21.7308C26.088 22.14 25.544 22.3683 24.9812 22.3493H22.4486Z" clip-rule="evenodd"/><path fill="#3C4043" fill-rule="evenodd" d="M34.7437 21.1219C34.0966 20.5225 33.215 20.218 32.0989 20.218C30.664 20.218 29.5855 20.7509 28.8727 21.807L30.2045 22.6538C30.6922 21.9307 31.358 21.5691 32.2021 21.5691C32.7367 21.5691 33.2525 21.7689 33.6558 22.1305C34.0497 22.473 34.2747 22.9678 34.2747 23.4911V23.8432C33.6933 23.5197 32.9618 23.3484 32.0614 23.3484C31.011 23.3484 30.167 23.5958 29.5386 24.1001C28.9102 24.6044 28.5914 25.2704 28.5914 26.1172C28.5726 26.8879 28.9009 27.6206 29.4823 28.1153C30.0732 28.6482 30.8235 28.9146 31.705 28.9146C32.7461 28.9146 33.5714 28.4484 34.1997 27.5159H34.2654V28.6482H35.7097V23.6148C35.7097 22.5587 35.3908 21.7214 34.7437 21.1219ZM30.6455 27.1449C30.336 26.9165 30.1484 26.5454 30.1484 26.1458C30.1484 25.6986 30.3547 25.3275 30.7581 25.0326C31.1708 24.7376 31.6867 24.5854 32.2964 24.5854C33.1406 24.5759 33.7972 24.7661 34.2662 25.1467C34.2662 25.7938 34.0129 26.3551 33.5158 26.8309C33.0656 27.2876 32.4559 27.5445 31.818 27.5445C31.3959 27.554 30.9832 27.4113 30.6455 27.1449Z" clip-rule="evenodd"/><path fill="#3C4043" d="M38.9547 32.2353L44.0003 20.4844H42.359L40.0238 26.3456H39.9957L37.6041 20.4844H35.9629L39.2735 28.1248L37.3978 32.2353H38.9547Z"/></g><g id="G" clip-path="url(#clip1_94_17545)"><path id="Blue" fill="#4285F4" d="M17.2354 22.768C17.2354 22.3018 17.1979 21.8356 17.1229 21.3789H10.7549V24.0145H14.4031C14.2531 24.8613 13.7654 25.6225 13.0526 26.0982V27.8109H15.2284C16.5039 26.6216 17.2354 24.8613 17.2354 22.768Z"/><path id="Green" fill="#34A853" d="M10.755 29.4665C12.5744 29.4665 14.1125 28.8576 15.2285 27.8109L13.0527 26.0983C12.4431 26.5169 11.6647 26.7548 10.755 26.7548C8.99183 26.7548 7.50064 25.5464 6.96607 23.9289H4.72461V25.6986C5.86879 28.0108 8.20403 29.4665 10.755 29.4665Z"/><path id="Yellow" fill="#FBBC04" d="M6.96642 23.9289C6.68502 23.0821 6.68502 22.1591 6.96642 21.3028V19.5426H4.7246C3.75847 21.4741 3.75847 23.7576 4.7246 25.6892L6.96642 23.9289Z"/><path id="Red" fill="#EA4335" d="M10.755 18.4769C11.721 18.4578 12.6494 18.8289 13.3434 19.5045L15.2754 17.5444C14.0468 16.3836 12.4337 15.7461 10.755 15.7651C8.20403 15.7651 5.86879 17.2304 4.72461 19.5425L6.96607 21.3123C7.50064 19.6852 8.99183 18.4769 10.755 18.4769Z"/></g></g></g><defs><clipPath id="clip0_94_17545"><rect width="40" height="16.4706" fill="white" transform="translate(4 15.765)"/></clipPath><clipPath id="clip1_94_17545"><rect width="13.2354" height="13.7018" fill="white" transform="translate(4 15.765)"/></clipPath></defs></svg>

<svg xmlns="http://www.w3.org/2000/svg" fill="none" aria-hidden="true" viewBox="0 0 48 48"><g clip-path="url(#a)"><g fill="#3C4043"><path fill-rule="evenodd" d="M22.448 28.648v-4.833h2.495c1.022 0 1.885-.343 2.589-1.018l.168-.172a3.48 3.48 0 0 0-.168-4.871 3.56 3.56 0 0 0-2.589-1.037h-4.005v11.931h1.51Zm0-6.299v-4.167h2.533c.544 0 1.06.21 1.445.59a2.12 2.12 0 0 1 .047 2.959 1.96 1.96 0 0 1-1.492.618H22.45Zm12.296-1.227c-.647-.6-1.529-.904-2.645-.904-1.435 0-2.513.533-3.226 1.589l1.331.847c.488-.723 1.154-1.085 1.998-1.085.535 0 1.05.2 1.454.562a1.8 1.8 0 0 1 .619 1.36v.352c-.582-.323-1.313-.495-2.214-.495-1.05 0-1.894.248-2.522.752-.629.504-.948 1.17-.948 2.017-.018.77.31 1.504.891 1.998.591.533 1.341.8 2.223.8 1.041 0 1.866-.467 2.495-1.4h.065v1.133h1.445v-5.033c0-1.056-.32-1.894-.966-2.493Zm-4.099 6.023a1.24 1.24 0 0 1-.497-1c0-.446.207-.817.61-1.112.413-.295.929-.448 1.538-.448.845-.01 1.501.181 1.97.562 0 .647-.253 1.208-.75 1.684a2.38 2.38 0 0 1-1.698.713 1.828 1.828 0 0 1-1.173-.4Z" clip-rule="evenodd"/><path d="M38.955 32.235 44 20.485h-1.64l-2.335 5.86h-.028l-2.392-5.86h-1.641l3.31 7.64-1.875 4.11h1.557Z"/></g><g clip-path="url(#b)"><path fill="#4285F4" d="M17.235 22.768c0-.466-.037-.932-.112-1.39h-6.368v2.637h3.648a3.175 3.175 0 0 1-1.35 2.083v1.713h2.175c1.276-1.19 2.007-2.95 2.007-5.043Z"/><path fill="#34A853" d="M10.755 29.466c1.82 0 3.357-.608 4.473-1.655l-2.175-1.713c-.61.419-1.388.657-2.298.657-1.763 0-3.254-1.209-3.789-2.826H4.725v1.77a6.735 6.735 0 0 0 6.03 3.767Z"/><path fill="#FBBC04" d="M6.966 23.929a4.19 4.19 0 0 1 0-2.626v-1.76H4.725a6.88 6.88 0 0 0 0 6.146l2.241-1.76Z"/><path fill="#EA4335" d="M10.755 18.477a3.605 3.605 0 0 1 2.588 1.027l1.932-1.96a6.467 6.467 0 0 0-4.52-1.779c-2.551 0-4.886 1.465-6.03 3.777l2.241 1.77c.535-1.627 2.026-2.835 3.789-2.835Z"/></g></g><defs><clipPath id="a"><path fill="#fff" d="M0 0h40v16.471H0z" transform="translate(4 15.765)"/></clipPath><clipPath id="b"><path fill="#fff" d="M0 0h13.235v13.702H0z" transform="translate(4 15.765)"/></clipPath></defs></svg>
